X:453
T: DER WINTER IST VERGANGEN
N: E0393
O: Europa, Mitteleuropa, Deutschland
R: Liebes - Lied, Jahreszeiten, Fruehling
M: 4/4
L: 1/8
K: G
D2 | G2G2A2d2 | B4B2
c2 | A2G2A2F2 | G4z2
D2 | G2G2A2d2 | B4B2
c2 | A2G2A2F2 | G4z2
GA | B2B2B2AB | c4c2
c2 | B2G2A2cB | A4z2
C2 | G2G2A2d2 | B4B2
c2 | A2G2A2F2 | G4z2

@@@ Tune index: 4103
